X: 41106
T: Trip To Sligo, The
R: jig
M: 6/8
K: Eminor
B|E2c BGE|D2d AFD|~E3 BAF|GFE e2f|
gfe d^cB|AdF FED|EFG ABc|BGE E2:|B|
eBA gfe|dAd fed|eBe gfe|f/g/af gfe|
f/g/af gfe|d>^cd AFD|EFG ABc|BGE E2:|

